svg/Pictogram/pictograms-hazard_signs-33.svg

<svg viewBox="0 0 94.263 82.947" width="94.26" xmlns="http://www.w3.org/2000/svg"><path d="m46.36.062c-1.505.232-2.827 1.121-3.583 2.438l-42.11 72.949c-.88 1.533-.895 3.441 0 4.986s2.559 2.514 4.358 2.512h84.22c1.801.002 3.465-.967 4.359-2.512s.879-3.453 0-4.986l-42.11-72.949c-1.035-1.803-3.086-2.76-5.135-2.438" fill="#fdee1c"/><g fill="#010101"><path d="m46.743 2.121c-.813.127-1.507.617-1.899 1.301l-42.4 73.45c-.464.809-.466 1.846 0 2.65.474.816 1.348 1.35 2.3 1.35h84.8c.951 0 1.826-.533 2.299-1.35.467-.805.465-1.842 0-2.65l-42.4-73.45c-.545-.949-1.598-1.474-2.701-1.3m.4 8.449l36 63.4h-72.05l36.05-63.4"/><path d="m59.56 41.07l-2.15 2.15c2.795 2.689 4.549 6.453 4.549 10.65 0 4.184-1.768 7.947-4.549 10.65l2.199 2.199c3.346-3.252 5.451-7.77 5.451-12.801 0-5.05-2.125-9.592-5.5-12.848m-25.301.451c-3.118 3.219-5.05 7.574-5.05 12.398 0 4.812 1.896 9.184 5 12.4l2.2-2.199c-2.543-2.666-4.101-6.285-4.101-10.25 0-3.967 1.558-7.547 4.101-10.201l-2.15-2.148m21.2 3.648l-1.85 1.9c1.814 1.723 2.951 4.156 2.951 6.85 0 2.682-1.102 5.129-2.9 6.852l1.701 1.699c2.311-2.18 3.748-5.271 3.748-8.699 0-3.379-1.397-6.428-3.65-8.602m-17.05.5c-1.972 2.131-3.2 4.969-3.2 8.102 0 3.197 1.255 6.105 3.3 8.25l1.7-1.701c-1.542-1.684-2.5-3.932-2.5-6.4 0-2.48.942-4.762 2.5-6.449l-1.8-1.802m13.15 3.401l-2.102 2.15c.748.66 1.25 1.617 1.25 2.699 0 1.07-.469 2.041-1.199 2.701l2.102 2.1c1.285-1.195 2.098-2.9 2.098-4.801 0-1.923-.832-3.652-2.149-4.849m-9.251.5c-1.053 1.16-1.75 2.666-1.75 4.35 0 1.674.66 3.193 1.7 4.352l2.1-2.102c-.501-.617-.8-1.395-.8-2.25 0-.879.323-1.674.851-2.299l-2.101-2.051"/><path d="m48.624 53.917c0 .824-.669 1.492-1.492 1.492s-1.491-.668-1.491-1.492c0-.822.668-1.49 1.491-1.49s1.492.668 1.492 1.49"/><path d="m41.575 70.65h10.857l-3.879-13.184c-1.025.225-2.058.305-3.102 0l-3.876 13.184" fill-rule="evenodd"/></g></svg>

<?xml version="1.0" encoding="iso-8859-1"?>
<!-- Generator: Adobe Illustrator 13.0.2, SVG Export Plug-In . SVG Version: 6.00 Build 14948)  --><svg baseProfile="tiny" height="82.947px" id="Layer_1" space="preserve" version="1.2" viewBox="0 0 94.263 82.947" width="94.263px" x="0px" xmlns="http://www.w3.org/2000/svg" xmlns:xlink="http://www.w3.org/1999/xlink" y="0px">
  <metadata>
    <rdf:RDF xmlns:cc="http://web.resource.org/cc/" xmlns:dc="http://purl.org/dc/elements/1.1/" xmlns:rdf="http://www.w3.org/1999/02/22-rdf-syntax-ns#">
      <cc:Work rdf:about="">
        <dc:title></dc:title>
        <dc:description></dc:description>
        <dc:subject>
          <rdf:Bag>
            <rdf:li></rdf:li>
          </rdf:Bag>
        </dc:subject>
        <dc:publisher>
          <cc:Agent rdf:about="http://openclipart.org">
            <dc:title>Source: Open Clip Art Library, Source: Open Clip Art Library</dc:title>
          </cc:Agent>
        </dc:publisher>
        <dc:creator>
          <cc:Agent>
            <dc:title></dc:title>
          </cc:Agent>
        </dc:creator>
        <dc:rights>
          <cc:Agent>
            <dc:title></dc:title>
          </cc:Agent>
        </dc:rights>
        <dc:date></dc:date>
        <dc:format>image/svg+xml</dc:format>
        <dc:type rdf:resource="http://purl.org/dc/dcmitype/StillImage"/>
        <cc:license rdf:resource="http://en.wikipedia.org/wiki/Public_domain"/>
        <dc:language>en</dc:language>
      </cc:Work>
    </rdf:RDF>
  </metadata>
  <path d="M46.356,0.062c-1.505,0.232-2.827,1.121-3.583,2.438L0.666,75.449c-0.88,1.533-0.895,3.441,0,4.986  s2.559,2.514,4.358,2.512h84.215c1.801,0.002,3.465-0.967,4.359-2.512s0.879-3.453,0-4.986L51.491,2.5  C50.456,0.697,48.405-0.26,46.356,0.062L46.356,0.062z" fill="#FDEE1C"/>
  <path d="M46.743,2.121c-0.813,0.127-1.507,0.617-1.899,1.301l-42.4,73.449c-0.464,0.809-0.466,1.846,0,2.65  c0.474,0.816,1.348,1.35,2.3,1.35h84.801c0.951,0,1.826-0.533,2.299-1.35c0.467-0.805,0.465-1.842,0-2.65L49.444,3.421  C48.899,2.472,47.846,1.947,46.743,2.121L46.743,2.121z M47.143,10.57l36,63.4h-72.05L47.143,10.57L47.143,10.57z" fill="#010101"/>
  <path d="M59.557,41.068l-2.15,2.15c2.795,2.689,4.549,6.453,4.549,10.65c0,4.184-1.768,7.947-4.549,10.65  l2.199,2.199c3.346-3.252,5.451-7.77,5.451-12.801C65.057,48.861,62.932,44.324,59.557,41.068L59.557,41.068z M34.256,41.519  c-3.118,3.219-5.05,7.574-5.05,12.398c0,4.812,1.896,9.184,5,12.4l2.2-2.199c-2.543-2.666-4.101-6.285-4.101-10.25  c0-3.967,1.558-7.547,4.101-10.201L34.256,41.519L34.256,41.519z M55.456,45.167l-1.85,1.9c1.814,1.723,2.951,4.156,2.951,6.85  c0,2.682-1.102,5.129-2.9,6.852l1.701,1.699c2.311-2.18,3.748-5.271,3.748-8.699C59.106,50.39,57.709,47.341,55.456,45.167  L55.456,45.167z M38.407,45.667c-1.972,2.131-3.2,4.969-3.2,8.102c0,3.197,1.255,6.105,3.3,8.25l1.7-1.701  c-1.542-1.684-2.5-3.932-2.5-6.4c0-2.48,0.942-4.762,2.5-6.449L38.407,45.667L38.407,45.667z M51.557,49.068l-2.102,2.15  c0.748,0.66,1.25,1.617,1.25,2.699c0,1.07-0.469,2.041-1.199,2.701l2.102,2.1c1.285-1.195,2.098-2.9,2.098-4.801  C53.706,51.994,52.874,50.265,51.557,49.068L51.557,49.068z M42.306,49.568c-1.053,1.16-1.75,2.666-1.75,4.35  c0,1.674,0.66,3.193,1.7,4.352l2.1-2.102c-0.501-0.617-0.8-1.395-0.8-2.25c0-0.879,0.323-1.674,0.851-2.299L42.306,49.568  L42.306,49.568z" fill="#010101"/>
  <path d="M48.624,53.917c0,0.824-0.669,1.492-1.492,1.492s-1.491-0.668-1.491-1.492c0-0.822,0.668-1.49,1.491-1.49  S48.624,53.095,48.624,53.917L48.624,53.917z" fill="#010101"/>
  <path d="M41.575,70.648h10.857l-3.879-13.184c-1.025,0.225-2.058,0.305-3.102,0L41.575,70.648  L41.575,70.648z" fill="#010101" fill-rule="evenodd"/>
</svg>
